X: 11095
T: Dudley Drive
R: jig
M: 6/8
K: Adorian
A2 e edB|d2 d edB|A2e edB|ded dBG|
A2e edB|d2 d edB|dBg BdB|1 eBd BGB:|2 eBf BgB||
|:a3 age|deg B3|A2 a age|deg bag|
a3 age|deg B3|e>fe ded|cdc BAG:|
|:AA ee AA|BB gg BB|cc AA cc|BB gg BB|AA ee AA|
BB gg BB|1 e>fe ded|cdc BAG:|2 dBg BdB|eBd BGB||

